images/people/people-06.svg

<?xml version="1.0" standalone="no"?><!DOCTYPE svg PUBLIC "-//W3C//DTD SVG 1.1//EN" "http://www.w3.org/Graphics/SVG/1.1/DTD/svg11.dtd"><svg width="120px" height="192px" version="1.1" xmlns="http://www.w3.org/2000/svg" xmlns:xlink="http://www.w3.org/1999/xlink" xml:space="preserve" style="fill-rule:evenodd;clip-rule:evenodd;stroke-linejoin:round;stroke-miterlimit:1.41421;"><g><g id="people-06" transform="matrix(1,0,0,1,-1607.51,-48)"><g transform="matrix(1,0,0,1,0,-12)"><path d="M1660.03,231.02l-0.943,6.871l6.697,-0.172l0.516,-7.384l-6.27,0.685Z" style="fill:#2a2b2a;fill-rule:nonzero;"/></g><g transform="matrix(1,0,0,1,0,-12)"><path d="M1664.86,241.519l1.353,9.981l5.28,0l0.774,-2.189l-1.377,-9.057l-6.03,1.265Z" style="fill:#2a2b2a;fill-rule:nonzero;"/></g><g transform="matrix(1,0,0,1,0,-12)"><path d="M1674.19,120.405l-2.834,-1.889l-2.061,-5.839l-4.757,1.357l-1.51,3.709l-3.262,1.632l7.103,11.462l7.321,-10.432Z" style="fill:#553f37;fill-rule:nonzero;"/></g><g transform="matrix(1,0,0,1,0,-12)"><path d="M1669.4,116.839l-4.286,0l-4.616,-5.935l0.824,-12.694l1.762,-1.462l8.722,0.087l2.867,2.034l-0.166,12.035l-5.107,5.935Z" style="fill:#72594b;fill-rule:nonzero;"/></g><g transform="matrix(1,0,0,1,0,-12)"><path d="M1661.01,103.456l-2.822,0.047l-0.223,4.916l2.879,-0.15l0.166,-4.813Z" style="fill:#72594b;fill-rule:nonzero;"/></g><g transform="matrix(1,0,0,1,0,-12)"><path d="M1674.3,104.125l2.848,0.775l-0.224,4.122l-2.518,0.098l-0.106,-4.995Z" style="fill:#72594b;fill-rule:nonzero;"/></g><g transform="matrix(1,0,0,1,0,-12)"><path d="M1655.36,161.031l4.661,69.989l5.41,0l1.201,-59.858l-2.794,28.96l1.078,41.46l5.923,-1.288l3.094,-39.927l4.033,-38.822l-22.606,-0.514Z" style="fill:#5c5e5f;fill-rule:nonzero;"/></g><g transform="matrix(1,0,0,1,0,-12)"><path d="M1666.09,171.062l-2.719,31.107l1.282,28.86l-5.317,-10.071l-2.576,-40.69l9.33,-9.206Z" style="fill:#171817;fill-opacity:0.5;fill-rule:nonzero;"/></g><g transform="matrix(1,0,0,1,0,-12)"><path d="M1685.28,156.99l2.349,5.768l-0.452,7.992l-2.653,-1.018l-0.541,-6.748l0.22,2.034l-2.4,0.107l0.873,-5.549l2.604,-2.586Z" style="fill:#72594b;fill-rule:nonzero;"/></g><g transform="matrix(1,0,0,1,0,-12)"><path d="M1649.17,157.268l-1.776,4.479l0.157,7.378l2.899,-0.381l0.588,-6.746l-0.233,2.033l2.495,0.344l-0.837,-5.593l-3.293,-1.514Z" style="fill:#72594b;fill-rule:nonzero;"/></g><g transform="matrix(1,0,0,1,0,-12)"><path d="M1659.64,119.246l-6.225,2.705l-4.459,36.159l3.606,0.601l4.115,-32.124l-1.373,34.442l22.668,0.516l-1.889,-32.209l6.526,30.319l3.306,-1.459l-5.881,-34.356l-5.839,-3.565l-8.371,-0.498l-6.184,-0.531Z" style="fill:#ebdab0;fill-rule:nonzero;"/></g><g transform="matrix(1,0,0,1,0,-12)"><path d="M1676.31,134.312l1.658,27.232l-22.668,-0.515l0.198,-5.967" style="fill:#e0cea8;fill-rule:nonzero;"/></g></g></g></svg>

<?xml version="1.0" encoding="UTF-8" standalone="no"?>
<!DOCTYPE svg PUBLIC "-//W3C//DTD SVG 1.1//EN" "http://www.w3.org/Graphics/SVG/1.1/DTD/svg11.dtd">
<svg width="100%" height="100%" viewBox="0 0 140 220" version="1.1" xmlns="http://www.w3.org/2000/svg" xmlns:xlink="http://www.w3.org/1999/xlink" xml:space="preserve" xmlns:serif="http://www.serif.com/" style="fill-rule:evenodd;clip-rule:evenodd;stroke-linejoin:round;stroke-miterlimit:2;">
    <g id="people-06" transform="matrix(1.27,0,0,1.27,-2047.74,-84.8)">
        <g transform="matrix(1,0,0,1,0,-12)">
            <path d="M1660.03,231.021L1659.08,237.892L1665.78,237.72L1666.3,230.336L1660.03,231.021Z" style="fill:rgb(42,43,42);fill-rule:nonzero;"/>
        </g>
        <g transform="matrix(1,0,0,1,0,-12)">
            <path d="M1664.86,241.519L1666.21,251.5L1671.49,251.5L1672.26,249.311L1670.88,240.254L1664.86,241.519Z" style="fill:rgb(42,43,42);fill-rule:nonzero;"/>
        </g>
        <g transform="matrix(1,0,0,1,0,-12)">
            <path d="M1674.19,120.405L1671.36,118.516L1669.3,112.677L1664.54,114.034L1663.03,117.743L1659.77,119.375L1666.87,130.837L1674.19,120.405Z" style="fill:rgb(85,63,55);fill-rule:nonzero;"/>
        </g>
        <g transform="matrix(1,0,0,1,0,-12)">
            <path d="M1669.4,116.839L1665.11,116.839L1660.5,110.904L1661.32,98.21L1663.08,96.748L1671.81,96.835L1674.67,98.869L1674.51,110.904L1669.4,116.839Z" style="fill:rgb(114,89,75);fill-rule:nonzero;"/>
        </g>
        <g transform="matrix(1,0,0,1,0,-12)">
            <path d="M1661.01,103.456L1658.19,103.503L1657.97,108.419L1660.85,108.269L1661.01,103.456Z" style="fill:rgb(114,89,75);fill-rule:nonzero;"/>
        </g>
        <g transform="matrix(1,0,0,1,0,-12)">
            <path d="M1674.3,104.125L1677.15,104.9L1676.93,109.022L1674.41,109.12L1674.3,104.125Z" style="fill:rgb(114,89,75);fill-rule:nonzero;"/>
        </g>
        <g transform="matrix(1,0,0,1,0,-12)">
            <path d="M1655.36,161.031L1660.03,231.02L1665.43,231.02L1666.64,171.162L1663.84,200.122L1664.92,241.582L1670.84,240.294L1673.94,200.367L1677.97,161.545L1655.36,161.031Z" style="fill:rgb(92,94,95);fill-rule:nonzero;"/>
        </g>
        <g transform="matrix(1,0,0,1,0,-12)">
            <path d="M1666.09,171.063L1663.37,202.17L1664.65,231.029L1659.34,220.959L1656.76,180.268L1666.09,171.063Z" style="fill:rgb(23,24,23);fill-opacity:0.5;fill-rule:nonzero;"/>
        </g>
        <g transform="matrix(1,0,0,1,0,-12)">
            <path d="M1685.28,156.99L1687.63,162.758L1687.17,170.75L1684.52,169.732L1683.98,162.984L1684.2,165.018L1681.8,165.125L1682.67,159.576L1685.28,156.99Z" style="fill:rgb(114,89,75);fill-rule:nonzero;"/>
        </g>
        <g transform="matrix(1,0,0,1,0,-12)">
            <path d="M1649.17,157.268L1647.4,161.747L1647.55,169.125L1650.45,168.744L1651.04,161.998L1650.81,164.031L1653.3,164.375L1652.47,158.782L1649.17,157.268Z" style="fill:rgb(114,89,75);fill-rule:nonzero;"/>
        </g>
        <g transform="matrix(1,0,0,1,0,-12)">
            <path d="M1659.64,119.246L1653.41,121.951L1648.95,158.11L1652.56,158.711L1656.68,126.587L1655.3,161.029L1677.97,161.545L1676.08,129.336L1682.61,159.655L1685.91,158.196L1680.03,123.84L1674.19,120.275L1665.82,119.777L1659.64,119.246Z" style="fill:rgb(235,218,176);fill-rule:nonzero;"/>
        </g>
        <g transform="matrix(1,0,0,1,0,-12)">
            <path d="M1676.31,134.313L1677.97,161.545L1655.3,161.03L1655.5,155.063" style="fill:rgb(224,206,168);fill-rule:nonzero;"/>
        </g>
    </g>
</svg>
